X:10
T:Good Queen Bess. TJD.10
M:2/4
L:1/8
Q:1/4=120
S:T.J.Dixon MS1, Lincolnshire, 1798
R:Air
N:Dots added to G in bars 3 and 7
N:Triplet signs added in line 2
A:Lincolnshire, Holton le Moor
Z:vmp.R.Greig2010
K:G
d/c/|BGGG|G2B|AGFG|ABcd|BGGG|G2B|cBAB|(AB)c2:|!
|:(3Bcd dd|e2>e2″^bar line added”| edcB|ABc2|(3Acc cc|c2c2|dcBA|Bcd2|!
GGGG|FFFF|EEEE|D2D2|cdec|BcdB|AGAB|G2G2:|]

